seeds/icons/television1.svg

<svg id="Layer_1" enable-background="new 0 0 512 512" height="1.5rem" viewBox="0 0 512 512" width="1.5rem" xmlns="http://www.w3.org/2000/svg"><path d="m456.834 32.133h-401.666c-30.42 0-55.168 24.748-55.168 55.167v273.133c0 30.42 24.748 55.167 55.168 55.167h137.633v34.267h-81.4c-8.284 0-15 6.716-15 15s6.716 15 15 15h96.4 96.401 96.398c8.284 0 15-6.716 15-15s-6.716-15-15-15h-81.398v-34.267h137.633c30.419 0 55.166-24.748 55.166-55.167v-273.133c-.001-30.419-24.748-55.167-55.167-55.167zm-167.632 417.734h-66.401v-34.267h66.401zm192.798-89.434c0 13.877-11.289 25.167-25.166 25.167h-152.632-96.401-152.633c-13.877 0-25.168-11.29-25.168-25.167v-273.133c0-13.877 11.291-25.167 25.168-25.167h401.667c13.876 0 25.165 11.29 25.165 25.167z"/></svg>

<svg xmlns="http://www.w3.org/2000/svg" width="1.5rem" height="1.5rem" viewBox="0 0 512 512"><path d="M456.834 32.133H55.168C24.748 32.133 0 56.881 0 87.3v273.133c0 30.42 24.748 55.167 55.168 55.167h137.633v34.267h-81.4c-8.284 0-15 6.716-15 15s6.716 15 15 15H400.6c8.284 0 15-6.716 15-15s-6.716-15-15-15h-81.398V415.6h137.633c30.419 0 55.166-24.748 55.166-55.167V87.3c-.001-30.419-24.748-55.167-55.167-55.167M289.202 449.867h-66.401V415.6h66.401zM482 360.433c0 13.877-11.289 25.167-25.166 25.167H55.168C41.291 385.6 30 374.31 30 360.433V87.3c0-13.877 11.291-25.167 25.168-25.167h401.667C470.711 62.133 482 73.423 482 87.3z"/></svg>
